icons/nodes_math.svg

<?xml version="1.0" encoding="UTF-8" standalone="no"?>
<svg
   width="32"
   height="32"
   viewBox="0 0 32 32"
   version="1.1"
   xml:space="preserve"
   style="clip-rule:evenodd;fill-rule:evenodd;stroke-linejoin:round;stroke-miterlimit:2"
   id="svg1380"
   sodipodi:docname="nodes_math.svg"
   inkscape:version="1.1.2 (b8e25be833, 2022-02-05)"
   xmlns:inkscape="http://www.inkscape.org/namespaces/inkscape"
   xmlns:sodipodi="http://sodipodi.sourceforge.net/DTD/sodipodi-0.dtd"
   xmlns:xlink="http://www.w3.org/1999/xlink"
   xmlns="http://www.w3.org/2000/svg"
   xmlns:svg="http://www.w3.org/2000/svg"><sodipodi:namedview
   id="namedview1382"
   pagecolor="#ffffff"
   bordercolor="#666666"
   borderopacity="1.0"
   inkscape:pageshadow="2"
   inkscape:pageopacity="0.0"
   inkscape:pagecheckerboard="0"
   showgrid="false"
   inkscape:zoom="12.625"
   inkscape:cx="31.960396"
   inkscape:cy="32.039604"
   inkscape:window-width="1920"
   inkscape:window-height="1001"
   inkscape:window-x="-9"
   inkscape:window-y="-9"
   inkscape:window-maximized="1"
   inkscape:current-layer="g1360" />
    <g
   transform="matrix(2.29751,0,0,2.10229,-102.787,-43.4679)"
   id="g1360">
        
        
        
        
        
        
        
        <g
   id="g1462"
   transform="matrix(0.50766996,0,0,0.51223918,21.933325,10.058077)"><g
     transform="matrix(0.427786,0,0,0.46751,44.8426,20.9729)"
     id="g1321">
            <path
   d="m 8.367,49.682 -6.62,-6.62 C 0.206,41.52 0.206,39.017 1.748,37.476 c 1.541,-1.542 4.044,-1.542 5.586,0 l 6.619,6.62 6.619,-6.62 c 1.541,-1.542 4.044,-1.542 5.586,0 1.541,1.541 1.541,4.044 0,5.586 l -6.62,6.62 6.62,6.621 c 1.541,1.541 1.541,4.044 0,5.586 -1.542,1.541 -4.045,1.541 -5.586,-0.001 L 13.953,55.269 7.334,61.888 C 5.792,63.43 3.289,63.43 1.748,61.889 0.206,60.347 0.206,57.844 1.747,56.303 Z"
   style="fill:#2e3436"
   id="path1319" />
        </g><g
     transform="matrix(0.460897,0,0,0.503696,43.3768,20.9101)"
     id="g1325">
            <path
   d="M 13.61,46.237 6.375,39.003 c -0.695,-0.696 -0.695,-1.825 0,-2.521 0.696,-0.696 1.826,-0.696 2.521,0 l 7.235,7.234 7.234,-7.234 c 0.695,-0.696 1.825,-0.696 2.521,0 0.695,0.696 0.695,1.825 0,2.521 l -7.235,7.234 7.235,7.234 c 0.695,0.696 0.695,1.826 0,2.521 -0.696,0.696 -1.826,0.696 -2.521,0 l -7.234,-7.234 -7.235,7.234 c -0.695,0.696 -1.825,0.696 -2.521,0 -0.695,-0.695 -0.695,-1.825 0,-2.521 z"
   style="fill:url(#_Linear1);stroke:#d3d7cf;stroke-width:1px"
   id="path1323" />
        </g><g
     transform="matrix(0.215144,0,0,0.243932,43.6895,24.4703)"
     id="g1329">
            <rect
   x="7.9299998"
   y="9.0120001"
   width="51.580002"
   height="12.89"
   style="fill:url(#_Linear2);fill-rule:nonzero;stroke:#2e3436;stroke-width:4.4px;stroke-miterlimit:4"
   id="rect1327" />
        </g><g
     transform="matrix(0.215144,0,0,0.243932,43.6895,24.4703)"
     id="g1333">
            <rect
   x="9.8400002"
   y="10.853"
   width="47.759998"
   height="9.2069998"
   style="fill:none;fill-rule:nonzero;stroke:#d3d7cf;stroke-width:1.88px;stroke-linejoin:miter;stroke-miterlimit:4"
   id="rect1331" />
        </g><g
     transform="matrix(0.149293,-0.224786,0.203426,0,57.4787,51.7714)"
     id="g1337">
            <rect
   x="7.9299998"
   y="9.0120001"
   width="51.580002"
   height="12.89"
   style="fill:#d3d7cf;fill-rule:nonzero;stroke:#2e3436;stroke-width:3.18px;stroke-miterlimit:4"
   id="rect1335" />
        </g><g
     transform="matrix(0.142829,-0.215053,0.121722,0,58.9514,51.4412)"
     id="g1350">
            <clipPath
   id="_clip3">
                <rect
   x="9.8400002"
   y="10.853"
   width="47.759998"
   height="9.2069998"
   clip-rule="nonzero"
   id="rect1339" />
            </clipPath>
            <g
   clip-path="url(#_clip3)"
   id="g1346">
                <g
   transform="matrix(0,3.57579,-2.21188,2.59542,143.056,-284.628)"
   id="g1344">
                    <use
   xlink:href="#_Image4"
   x="38.918999"
   y="38.634998"
   width="19"
   height="22"
   id="use1342" />
                </g>
            </g>
            <rect
   x="9.8400002"
   y="10.853"
   width="47.759998"
   height="9.2069998"
   style="fill:none;fill-rule:nonzero;stroke:#d3d7cf;stroke-width:1.88px;stroke-linejoin:miter;stroke-miterlimit:4"
   id="rect1348" />
        </g><g
     transform="matrix(0.252444,0,0,0.286222,56.8591,23.9551)"
     id="g1354">
            <path
   d="M 40.406,40.315 V 21.902 H 59.51 V 9.012 H 40.406 V -9.402 H 27.034 V 9.012 H 7.93 v 12.89 h 19.104 v 18.413 z"
   style="fill:#d3d7cf;fill-rule:nonzero;stroke:#2e3436;stroke-width:3.75px;stroke-miterlimit:4"
   id="path1352" />
        </g><g
     transform="matrix(0.252444,0,0,0.286222,56.8591,23.9551)"
     id="g1358">
            <path
   d="M 38.496,38.474 V 20.06 H 57.6 V 10.853 H 38.496 V -7.56 H 28.944 V 10.853 H 9.84 v 9.207 h 19.104 v 18.414 z"
   style="fill:url(#_Linear5);fill-rule:nonzero;stroke:#d3d7cf;stroke-width:1.88px;stroke-linejoin:miter;stroke-miterlimit:4"
   id="path1356" />
        </g></g>
    </g>
    <defs
   id="defs1378">
        <linearGradient
   id="_Linear1"
   x1="0"
   y1="0"
   x2="1"
   y2="0"
   gradientUnits="userSpaceOnUse"
   gradientTransform="matrix(20.5536,0,0,20.5536,5.85374,46.2371)"><stop
     offset="0"
     style="stop-color:rgb(48,53,44);stop-opacity:1"
     id="stop1362" /><stop
     offset="1"
     style="stop-color:rgb(211,215,207);stop-opacity:1"
     id="stop1364" /></linearGradient>
        <linearGradient
   id="_Linear2"
   x1="0"
   y1="0"
   x2="1"
   y2="0"
   gradientUnits="userSpaceOnUse"
   gradientTransform="matrix(51.58,0,0,12.89,7.93,15.457)"><stop
     offset="0"
     style="stop-color:rgb(198,202,194);stop-opacity:1"
     id="stop1367" /><stop
     offset="1"
     style="stop-color:rgb(57,62,53);stop-opacity:1"
     id="stop1369" /></linearGradient>
        <image
   id="_Image4"
   width="19"
   height="22"
   xlink:href="data:image/png;base64,iVBORw0KGgoAAAANSUhEUgAAABMAAAAWCAYAAAAinad/AAAACXBIWXMAAA7EAAAOxAGVKw4bAAABFklEQVQ4jWNkIBOcv3z6P7oYIzkGnThzBMMgsgw7eHQvVoPsrZ0ZWUg17MfPHxhi7k7ejAwMDAwkGbZp27r/P3/8xClPtDdXb1iO1XuhAZFwM4gybMmKBVgNiolIQNFPlDd//sT0WnJ8OoZDCBo2bdak/9gMwwbwerNvchdW7xXllmHVh9Ow9p5mrAZVltTi1IPTm9i81lDdgtcnWA2rrCslOpyQAYZNRWV5WL3X1zWJYDLCcBm27DJt4iyi0iOKYckZ8WR5DwbgNsYkRmD13pL5K4jOcowMDAwMoVGBWA1avWw9SUUUCwMD9mSwae02kss6FndvZ7zFCkmGYYu9g3uOklWcs/z69QtF4Pih02QZxMDAwAAADCtiKt/pXy8AAAAASUVORK5CYII=" />
        <linearGradient
   id="_Linear5"
   x1="0"
   y1="0"
   x2="1"
   y2="0"
   gradientUnits="userSpaceOnUse"
   gradientTransform="matrix(47.76,0,0,46.034,9.84,15.457)"><stop
     offset="0"
     style="stop-color:rgb(57,62,53);stop-opacity:1"
     id="stop1373" /><stop
     offset="1"
     style="stop-color:rgb(130,136,125);stop-opacity:1"
     id="stop1375" /></linearGradient>
    </defs>
</svg>

<?xml version="1.0" encoding="UTF-8" standalone="no"?>
<!DOCTYPE svg PUBLIC "-//W3C//DTD SVG 1.1//EN" "http://www.w3.org/Graphics/SVG/1.1/DTD/svg11.dtd">
<svg width="100%" height="100%" viewBox="0 0 64 64" version="1.1" xmlns="http://www.w3.org/2000/svg" xmlns:xlink="http://www.w3.org/1999/xlink" xml:space="preserve" xmlns:serif="http://www.serif.com/" style="fill-rule:evenodd;clip-rule:evenodd;stroke-linejoin:round;stroke-miterlimit:2;">
    <g transform="matrix(2.29751,0,0,2.10229,-102.787,-43.4679)">
        <g transform="matrix(0.427786,0,0,0.46751,44.8426,20.9729)">
            <path d="M8.367,49.682L1.747,43.062C0.206,41.52 0.206,39.017 1.748,37.476C3.289,35.934 5.792,35.934 7.334,37.476L13.953,44.096L20.572,37.476C22.113,35.934 24.616,35.934 26.158,37.476C27.699,39.017 27.699,41.52 26.158,43.062L19.538,49.682L26.158,56.303C27.699,57.844 27.699,60.347 26.158,61.889C24.616,63.43 22.113,63.43 20.572,61.888L13.953,55.269L7.334,61.888C5.792,63.43 3.289,63.43 1.748,61.889C0.206,60.347 0.206,57.844 1.747,56.303L8.367,49.682Z" style="fill:rgb(46,52,54);"/>
        </g>
        <g transform="matrix(0.460897,0,0,0.503696,43.3768,20.9101)">
            <path d="M13.61,46.237L6.375,39.003C5.68,38.307 5.68,37.178 6.375,36.482C7.071,35.786 8.201,35.786 8.896,36.482L16.131,43.716L23.365,36.482C24.06,35.786 25.19,35.786 25.886,36.482C26.581,37.178 26.581,38.307 25.886,39.003L18.651,46.237L25.886,53.471C26.581,54.167 26.581,55.297 25.886,55.992C25.19,56.688 24.06,56.688 23.365,55.992L16.131,48.758L8.896,55.992C8.201,56.688 7.071,56.688 6.375,55.992C5.68,55.297 5.68,54.167 6.375,53.471L13.61,46.237Z" style="fill:url(#_Linear1);stroke:rgb(211,215,207);stroke-width:1px;"/>
        </g>
        <g transform="matrix(0.215144,0,0,0.243932,43.6895,24.4703)">
            <rect x="7.93" y="9.012" width="51.58" height="12.89" style="fill:url(#_Linear2);fill-rule:nonzero;stroke:rgb(46,52,54);stroke-width:4.4px;stroke-miterlimit:4;"/>
        </g>
        <g transform="matrix(0.215144,0,0,0.243932,43.6895,24.4703)">
            <rect x="9.84" y="10.853" width="47.76" height="9.207" style="fill:none;fill-rule:nonzero;stroke:rgb(211,215,207);stroke-width:1.88px;stroke-linejoin:miter;stroke-miterlimit:4;"/>
        </g>
        <g transform="matrix(0.149293,-0.224786,0.203426,1.14496e-17,57.4787,51.7714)">
            <rect x="7.93" y="9.012" width="51.58" height="12.89" style="fill:rgb(211,215,207);fill-rule:nonzero;stroke:rgb(46,52,54);stroke-width:3.18px;stroke-miterlimit:4;"/>
        </g>
        <g transform="matrix(0.142829,-0.215053,0.121722,1.44533e-17,58.9514,51.4412)">
            <clipPath id="_clip3">
                <rect x="9.84" y="10.853" width="47.76" height="9.207" clip-rule="nonzero"/>
            </clipPath>
            <g clip-path="url(#_clip3)">
                <g transform="matrix(2.40323e-16,3.57579,-2.21188,2.59542,143.056,-284.628)">
                    <use xlink:href="#_Image4" x="38.919" y="38.635" width="19px" height="22px"/>
                </g>
            </g>
            <rect x="9.84" y="10.853" width="47.76" height="9.207" style="fill:none;fill-rule:nonzero;stroke:rgb(211,215,207);stroke-width:1.88px;stroke-linejoin:miter;stroke-miterlimit:4;"/>
        </g>
        <g transform="matrix(0.252444,0,0,0.286222,56.8591,23.9551)">
            <path d="M40.406,40.315L40.406,21.902L59.51,21.902L59.51,9.012L40.406,9.012L40.406,-9.402L27.034,-9.402L27.034,9.012L7.93,9.012L7.93,21.902L27.034,21.902L27.034,40.315L40.406,40.315Z" style="fill:rgb(211,215,207);fill-rule:nonzero;stroke:rgb(46,52,54);stroke-width:3.75px;stroke-miterlimit:4;"/>
        </g>
        <g transform="matrix(0.252444,0,0,0.286222,56.8591,23.9551)">
            <path d="M38.496,38.474L38.496,20.06L57.6,20.06L57.6,10.853L38.496,10.853L38.496,-7.56L28.944,-7.56L28.944,10.853L9.84,10.853L9.84,20.06L28.944,20.06L28.944,38.474L38.496,38.474Z" style="fill:url(#_Linear5);fill-rule:nonzero;stroke:rgb(211,215,207);stroke-width:1.88px;stroke-linejoin:miter;stroke-miterlimit:4;"/>
        </g>
    </g>
    <defs>
        <linearGradient id="_Linear1" x1="0" y1="0" x2="1" y2="0" gradientUnits="userSpaceOnUse" gradientTransform="matrix(20.5536,0,0,20.5536,5.85374,46.2371)"><stop offset="0" style="stop-color:rgb(48,53,44);stop-opacity:1"/><stop offset="1" style="stop-color:rgb(211,215,207);stop-opacity:1"/></linearGradient>
        <linearGradient id="_Linear2" x1="0" y1="0" x2="1" y2="0" gradientUnits="userSpaceOnUse" gradientTransform="matrix(51.58,0,0,12.89,7.93,15.457)"><stop offset="0" style="stop-color:rgb(198,202,194);stop-opacity:1"/><stop offset="1" style="stop-color:rgb(57,62,53);stop-opacity:1"/></linearGradient>
        <image id="_Image4" width="19px" height="22px" xlink:href="data:image/png;base64,iVBORw0KGgoAAAANSUhEUgAAABMAAAAWCAYAAAAinad/AAAACXBIWXMAAA7EAAAOxAGVKw4bAAABFklEQVQ4jWNkIBOcv3z6P7oYIzkGnThzBMMgsgw7eHQvVoPsrZ0ZWUg17MfPHxhi7k7ejAwMDAwkGbZp27r/P3/8xClPtDdXb1iO1XuhAZFwM4gybMmKBVgNiolIQNFPlDd//sT0WnJ8OoZDCBo2bdak/9gMwwbwerNvchdW7xXllmHVh9Ow9p5mrAZVltTi1IPTm9i81lDdgtcnWA2rrCslOpyQAYZNRWV5WL3X1zWJYDLCcBm27DJt4iyi0iOKYckZ8WR5DwbgNsYkRmD13pL5K4jOcowMDAwMoVGBWA1avWw9SUUUCwMD9mSwae02kss6FndvZ7zFCkmGYYu9g3uOklWcs/z69QtF4Pih02QZxMDAwAAADCtiKt/pXy8AAAAASUVORK5CYII="/>
        <linearGradient id="_Linear5" x1="0" y1="0" x2="1" y2="0" gradientUnits="userSpaceOnUse" gradientTransform="matrix(47.76,0,0,46.034,9.84,15.457)"><stop offset="0" style="stop-color:rgb(57,62,53);stop-opacity:1"/><stop offset="1" style="stop-color:rgb(130,136,125);stop-opacity:1"/></linearGradient>
    </defs>
</svg>
